assets/icons/clock_colored.svg

<svg fill="none" height="18" viewBox="0 0 18 18" width="18" xmlns="http://www.w3.org/2000/svg" xmlns:xlink="http://www.w3.org/1999/xlink"><clipPath id="a"><path d="m0 0h18v18h-18z"/></clipPath><mask id="b" height="18" maskUnits="userSpaceOnUse" width="18" x="0" y="0"><path d="m18 0h-18v18h18z" fill="#fff"/></mask><g clip-path="url(#a)"><g fill="#000" mask="url(#b)"><path d="m0 9.52734v-1.05468c.0453516-.33399.0794531-.67008.137812-1.00196.395508-2.24789 1.496958-4.08304 3.269528-5.51074 1.25438-1.010741 2.6884-1.62914 4.28555-1.859765.25945-.0372653.51996-.0671481.77977-.100195h1.05468c.30059.0372656.60366.0622266.90176.113555 2.2838.393047 4.1607 1.488515 5.6127 3.296605.9981 1.23301 1.6406 2.71519 1.858 4.2866.0373.25875.0672.51855.1002.77765v1.05469c-.0454.33399-.0795.6701-.1378 1.002-.3955 2.2478-1.497 4.083-3.2695 5.5107-1.2548 1.0111-2.6888 1.6291-4.2859 1.8598-.2595.0372-.52.0671-.77981.1002h-1.05433c-.30059-.0373-.60364-.0623-.90176-.1136-2.2841-.3948-4.16074-1.4903-5.6127-3.2966-.998128-1.233-1.640575-2.7152-1.858005-4.2866-.0372653-.2588-.0671481-.51855-.100195-.77766zm16.6004-.53367c-.0084-4.20187-3.4221-7.60781-7.6113-7.59375-4.20152.01371-7.58637 3.40242-7.58953 7.59762-.00316 4.19516 3.40523 7.60536 7.60254 7.60286 4.19729-.0024 7.60639-3.4129 7.59829-7.60673z"/><path d="m8.299 6.95611c0-.68519-.00351-1.37109.00176-2.05558.00246-.29918.13289-.53402.41344-.65883.26297-.11672.51574-.08015.73828.10547.18914.15645.25067.37055.25067.60961-.00176 1.18898 0 2.37796-.00422 3.56694 0 .13817.04465.21938.15433.30094.78044.57844 1.55734 1.16156 2.33054 1.74944.297.2253.3811.5625.2316.8708-.1951.4039-.6764.5238-1.0547.2482-.515-.3755-1.0219-.7629-1.53204-1.1454-.39305-.295-.78258-.59523-1.18055-.88351-.24434-.17578-.35157-.40957-.34946-.70593.00211-.66692 0-1.33453.00035-2.00215z"/></g></g></svg>

<svg width="18" height="18" viewBox="0 0 18 18" fill="none" xmlns="http://www.w3.org/2000/svg">
<g clip-path="url(#clip0_235_2216)">
<mask id="mask0_235_2216" style="mask-type:alpha" maskUnits="userSpaceOnUse" x="0" y="0" width="18" height="18">
<path d="M18 0H0V18H18V0Z" fill="white"/>
</mask>
<g mask="url(#mask0_235_2216)">
<path d="M0 9.52734V8.47266C0.0453516 8.13867 0.0794531 7.80258 0.137812 7.4707C0.53332 5.22281 1.63477 3.38766 3.40734 1.95996C4.66172 0.949219 6.09574 0.33082 7.69289 0.100195C7.95234 0.0629297 8.21285 0.0330469 8.47266 0H9.52734C9.82793 0.0372656 10.131 0.0622266 10.4291 0.113555C12.7129 0.506602 14.5898 1.60207 16.0418 3.41016C17.0399 4.64317 17.6824 6.12535 17.8998 7.69676C17.9371 7.95551 17.967 8.21531 18 8.47441V9.5291C17.9546 9.86309 17.9205 10.1992 17.8622 10.5311C17.4667 12.7789 16.3652 14.6141 14.5927 16.0418C13.3379 17.0529 11.9039 17.6709 10.3068 17.9016C10.0473 17.9388 9.7868 17.9687 9.52699 18.0018H8.47266C8.17207 17.9645 7.86902 17.9395 7.5709 17.8882C5.2868 17.4934 3.41016 16.3979 1.9582 14.5916C0.960072 13.3586 0.317625 11.8764 0.100195 10.305C0.0629297 10.0462 0.0330469 9.78645 0 9.52734ZM16.6004 8.99367C16.592 4.7918 13.1783 1.38586 8.9891 1.39992C4.78758 1.41363 1.40273 4.80234 1.39957 8.99754C1.39641 13.1927 4.8048 16.6029 9.00211 16.6004C13.1994 16.598 16.6085 13.1875 16.6004 8.99367Z" fill="black"/>
<path d="M8.299 6.95611C8.299 6.27092 8.29549 5.58502 8.30076 4.90053C8.30322 4.60135 8.43365 4.36651 8.7142 4.2417C8.97717 4.12498 9.22994 4.16155 9.45248 4.34717C9.64162 4.50362 9.70315 4.71772 9.70315 4.95678C9.70139 6.14576 9.70315 7.33474 9.69893 8.52372C9.69893 8.66189 9.74358 8.7431 9.85326 8.82466C10.6337 9.4031 11.4106 9.98622 12.1838 10.5741C12.4808 10.7994 12.5649 11.1366 12.4154 11.4449C12.2203 11.8488 11.739 11.9687 11.3607 11.6931C10.8457 11.3176 10.3388 10.9302 9.82866 10.5477C9.43561 10.2527 9.04608 9.95247 8.64811 9.66419C8.40377 9.48841 8.29654 9.25462 8.29865 8.95826C8.30076 8.29134 8.29865 7.62373 8.299 6.95611Z" fill="black"/>
</g>
</g>
<defs>
<clipPath id="clip0_235_2216">
<rect width="18" height="18" fill="white"/>
</clipPath>
</defs>
</svg>
